X: 34987
T: Rodney's Glory
R: hornpipe
M: 4/4
K: Aminor
ed|c2 (3ABc ABcA|BGEF G2 cd|e=fed cde^f|gfge d=fed|
c2 Bc ABcA|BGEF G2 ed|(3cec BA GABG|A2 AG A2:|
|:cd|eaab aged|e=fed c2 A2|(3gbg fg agec|dcAF G2 E2|
AGAB c2c2|edeg a2 ab|aged cdef|gf (3gfe d=fed|
c2 (3ABc ABcA|BGEF G2 ed|(3cec BA GABG|A2 AG A2:|

